X: 1
T:Gan Ainm
R:Reel
S:Gerry McCartney, Belfast (banjo-mandolin)
M:4/4
D:Session tape - Ballaghadereen Fleadh, 1977
N:As played
Z:Bernie Stocks
K:D %ie. Em
GEBE GEBE | FDAD FDAD |1 GEBE GEBE | FEDF E3F :|2 G2GF GBdB |
AGFG E3F || G2GF GBdB | ABAG FDAD | BeeB e3f | gfed Beef |
gfge dedB | ABAG FDAD | Beed BcdB | AFDF E4 ||
